X:1
T:JB Waltz harmony
M:3/4
L:1/4
K:G
"Gmaj7"G2D | "Am7"E2G | "Bm7"F2D | "Em7"E3 | "Am7"GE2 | "Eb7"_EDC | "Gmaj7"B,2F | GFD |
"C"E3 | "Cm7"_E3 | "Gmaj7"D3 | "G6"E3 | "C#m7b5"^C3 | "A7"E3 | "Eb7"_E3| "D7"D3|
"G"G3 | "Gmaj7"F3 | "Em7"E3 | "G7"D3 | "Cmaj7"C3 | "F9"C_EC | "Bm7b5"DE=F | "E7"E3|
"Am7"A3 | "Ab7"_A3 | "G"G2F | "Cmaj7"E2G | "Am7b5"A2G | "D7"F2D | "Gmaj7"G3- | G3 ||
